src/img/icons/identity.svg

<svg width="32" height="32" viewBox="0 0 32 32" fill="none" xmlns="http://www.w3.org/2000/svg">
<path d="M15.5756 5.4526C18.0587 5.4526 20.4013 5.98693 22.6034 7.05559C24.8053 8.12425 26.6417 9.66406 28.1124 11.675C28.2587 11.8592 28.3048 12.0267 28.2505 12.1778C28.1963 12.3285 28.1033 12.4536 27.9715 12.553C27.8395 12.6523 27.6911 12.6966 27.5262 12.6858C27.3613 12.6752 27.217 12.584 27.0932 12.412C25.7833 10.562 24.1082 9.14734 22.0679 8.16817C20.0278 7.18899 17.8637 6.69941 15.5756 6.69941C13.2974 6.69941 11.1556 7.19346 9.15027 8.18156C7.14471 9.16989 5.47983 10.5801 4.15563 12.412C4.02364 12.6053 3.87273 12.7093 3.70292 12.7238C3.53311 12.7382 3.38221 12.6912 3.25021 12.5829C3.11751 12.4836 3.03695 12.3593 3.00853 12.2102C2.98011 12.061 3.02274 11.9061 3.13641 11.7455C4.60177 9.76717 6.42378 8.22383 8.60244 7.11548C10.7813 6.00689 13.1057 5.4526 15.5756 5.4526ZM15.5763 8.76427C18.7285 8.76427 21.4369 9.81473 23.7016 11.9156C25.9664 14.0166 27.0988 16.6193 27.0988 19.7238C27.0988 20.8789 26.6898 21.8434 25.8718 22.6173C25.0537 23.3912 24.0571 23.7781 22.8821 23.7781C21.7113 23.7781 20.704 23.3912 19.8604 22.6173C19.0165 21.8434 18.5945 20.8789 18.5945 19.7238C18.5945 18.9306 18.3002 18.2608 17.7117 17.7142C17.1228 17.1677 16.4199 16.8944 15.6028 16.8944C14.7784 16.8944 14.069 17.1665 13.4748 17.7107C12.8808 18.2547 12.5838 18.9257 12.5838 19.7238C12.5838 22.0291 13.2681 23.9541 14.6367 25.4988C16.0053 27.0435 17.7583 28.1212 19.8956 28.7319C20.0847 28.7939 20.2133 28.8973 20.2814 29.0419C20.3492 29.1866 20.3597 29.3416 20.3127 29.507C20.2658 29.6517 20.1808 29.7781 20.058 29.8864C19.9352 29.9949 19.7726 30.0257 19.5704 29.9787C17.1637 29.3681 15.1898 28.1592 13.6489 26.3521C12.1076 24.5448 11.337 22.3353 11.337 19.7238C11.337 18.5675 11.7553 17.5992 12.5919 16.8187C13.4283 16.0382 14.4323 15.648 15.6038 15.648C16.7751 15.648 17.7741 16.0382 18.6009 16.8187C19.4279 17.5992 19.8413 18.5675 19.8413 19.7238C19.8413 20.5219 20.1426 21.1929 20.745 21.7369C21.3475 22.2811 22.0584 22.5532 22.8779 22.5532C23.6971 22.5532 24.3976 22.2799 24.9794 21.7333C25.5611 21.1868 25.852 20.517 25.852 19.7238C25.852 16.9763 24.8435 14.667 22.8264 12.7961C20.8091 10.9248 18.4003 9.98924 15.5999 9.98924C12.7996 9.98924 10.3945 10.9261 8.38471 12.7999C6.37469 14.6737 5.36968 16.9744 5.36968 19.702C5.36968 20.2703 5.42934 20.9807 5.54865 21.8331C5.66773 22.6852 5.92245 23.6749 6.3128 24.8023C6.3741 24.9867 6.37046 25.1498 6.30188 25.2916C6.2333 25.4335 6.1141 25.5397 5.94429 25.6101C5.77448 25.6806 5.61277 25.6789 5.45916 25.6052C5.30556 25.5312 5.19799 25.41 5.13645 25.2416C4.77522 24.2984 4.51604 23.3792 4.35891 22.4841C4.20155 21.5888 4.12287 20.6687 4.12287 19.7238C4.12287 16.6193 5.24954 14.0166 7.50289 11.9156C9.75624 9.81473 12.4474 8.76427 15.5763 8.76427ZM15.6028 2C17.0939 2 18.5503 2.18202 19.9717 2.54607C21.3931 2.91012 22.7679 3.43271 24.0961 4.11383C24.2984 4.22234 24.4149 4.35199 24.4456 4.50278C24.4764 4.65357 24.461 4.80224 24.3995 4.9488C24.3382 5.09512 24.232 5.20622 24.081 5.28208C23.9302 5.35794 23.7599 5.3462 23.5701 5.24685C22.3345 4.58546 21.0465 4.08682 19.7061 3.75096C18.3657 3.41486 16.9957 3.24681 15.5961 3.24681C14.2202 3.24681 12.8702 3.41439 11.546 3.74955C10.2215 4.08471 8.94687 4.58381 7.72202 5.24685C7.57922 5.33704 7.42515 5.35736 7.2598 5.3078C7.09445 5.25801 6.97384 5.15278 6.89798 4.99213C6.82212 4.83125 6.80098 4.68128 6.83457 4.54224C6.86792 4.40296 6.96492 4.28365 7.12557 4.1843C8.43192 3.47076 9.80145 2.92833 11.2342 2.557C12.6669 2.18567 14.1231 2 15.6028 2ZM15.6035 12.1954C17.7692 12.1954 19.6276 12.9203 21.1787 14.3702C22.7298 15.82 23.5053 17.6046 23.5053 19.7238C23.5053 19.9108 23.4481 20.0614 23.3337 20.1758C23.2196 20.29 23.069 20.347 22.8821 20.347C22.7212 20.347 22.5771 20.29 22.4498 20.1758C22.3223 20.0614 22.2585 19.9108 22.2585 19.7238C22.2585 17.9442 21.6002 16.4523 20.2835 15.2481C18.9666 14.0439 17.4064 13.4418 15.6031 13.4418C13.7998 13.4418 12.2468 14.0439 10.9442 15.2481C9.64162 16.4523 8.99032 17.9438 8.99032 19.7227C8.99032 21.644 9.32361 23.2703 9.99017 24.6018C10.657 25.9333 11.6245 27.2766 12.8928 28.6318C13.0337 28.7744 13.0974 28.9284 13.0838 29.0937C13.0701 29.2591 13.0065 29.3987 12.8928 29.5126C12.77 29.6355 12.6259 29.6991 12.4605 29.7036C12.2952 29.708 12.1465 29.6444 12.0145 29.5126C10.656 28.0745 9.60463 26.5956 8.86032 25.076C8.11578 23.5566 7.74352 21.7725 7.74352 19.7234C7.74352 17.6044 8.51201 15.82 10.049 14.3702C11.5862 12.9203 13.4377 12.1954 15.6035 12.1954ZM15.5513 19.1006C15.7373 19.1006 15.8881 19.1629 16.0037 19.2876C16.1195 19.4121 16.1774 19.5575 16.1774 19.7238C16.1774 21.513 16.8182 22.9803 18.0999 24.1255C19.3818 25.2705 20.8819 25.843 22.6002 25.843C22.7863 25.843 23.0085 25.8313 23.2668 25.8078C23.5252 25.7843 23.7907 25.749 24.0634 25.7021C24.2388 25.6643 24.3893 25.6892 24.5147 25.7768C24.6403 25.8644 24.7266 26.0012 24.7736 26.1872C24.8206 26.3528 24.7898 26.4976 24.6813 26.6216C24.573 26.7458 24.434 26.8314 24.2642 26.8784C23.9227 26.9686 23.5979 27.0264 23.2897 27.0518C22.9818 27.0771 22.752 27.0898 22.6002 27.0898C20.5369 27.0898 18.7429 26.3915 17.2181 24.995C15.6931 23.5987 14.9306 21.8416 14.9306 19.7238C14.9306 19.5575 14.9875 19.4121 15.1014 19.2876C15.2151 19.1629 15.3651 19.1006 15.5513 19.1006Z" fill="#131212"/>
</svg>

<svg xmlns="http://www.w3.org/2000/svg" viewBox="0 0 32 32">
  <path fill="currentColor" d="M15.576 5.453c2.483 0 4.825.534 7.027 1.603 2.202 1.068 4.039 2.608 5.51 4.619.146.184.192.352.137.503a.802.802 0 0 1-.279.375.648.648 0 0 1-.445.133c-.165-.01-.309-.102-.433-.274a12.901 12.901 0 0 0-5.025-4.244A14.815 14.815 0 0 0 15.576 6.7c-2.279 0-4.42.494-6.426 1.483a13.377 13.377 0 0 0-4.994 4.23c-.132.193-.283.297-.453.312a.608.608 0 0 1-.453-.141.595.595 0 0 1-.241-.373c-.029-.149.014-.304.127-.465a15.417 15.417 0 0 1 5.466-4.63 15.164 15.164 0 0 1 6.974-1.662Zm0 3.311c3.152 0 5.86 1.05 8.126 3.152 2.264 2.1 3.397 4.703 3.397 7.808 0 1.155-.41 2.12-1.227 2.893-.818.774-1.815 1.161-2.99 1.161-1.17 0-2.178-.387-3.022-1.16-.843-.775-1.265-1.74-1.265-2.894 0-.793-.295-1.463-.883-2.01a2.993 2.993 0 0 0-2.11-.82c-.824 0-1.533.273-2.127.817-.594.544-.891 1.215-.891 2.013 0 2.305.684 4.23 2.053 5.775 1.368 1.545 3.121 2.622 5.259 3.233.189.062.317.165.385.31s.079.3.032.465a.85.85 0 0 1-.255.38c-.123.108-.285.139-.488.092-2.406-.61-4.38-1.82-5.921-3.627-1.541-1.807-2.312-4.017-2.312-6.628 0-1.157.418-2.125 1.255-2.905.836-.78 1.84-1.171 3.012-1.171 1.171 0 2.17.39 2.997 1.17.827.781 1.24 1.75 1.24 2.906 0 .798.302 1.469.904 2.013a3.078 3.078 0 0 0 2.133.816c.82 0 1.52-.273 2.101-.82a2.65 2.65 0 0 0 .873-2.01c0-2.747-1.009-5.056-3.026-6.927C20.81 10.925 18.4 9.99 15.6 9.99s-5.205.937-7.215 2.81c-2.01 1.875-3.015 4.175-3.015 6.903 0 .568.06 1.279.179 2.131.119.852.373 1.842.764 2.97a.636.636 0 0 1-.011.489.655.655 0 0 1-.358.318.57.57 0 0 1-.485-.005.624.624 0 0 1-.323-.363 14.944 14.944 0 0 1-.777-2.758 15.918 15.918 0 0 1-.236-2.76c0-3.105 1.127-5.707 3.38-7.808s4.944-3.152 8.073-3.152ZM15.603 2c1.49 0 2.947.182 4.369.546 1.421.364 2.796.887 4.124 1.568.202.108.319.238.35.389.03.15.015.3-.047.446a.645.645 0 0 1-.318.333c-.15.076-.321.064-.51-.035a16.826 16.826 0 0 0-7.975-2 16.442 16.442 0 0 0-7.874 2 .539.539 0 0 1-.462.06.566.566 0 0 1-.362-.315.67.67 0 0 1-.063-.45c.033-.139.13-.258.29-.358a17.917 17.917 0 0 1 4.11-1.627A17.343 17.343 0 0 1 15.602 2Zm0 10.195c2.166 0 4.025.725 5.576 2.175 1.55 1.45 2.326 3.235 2.326 5.354a.611.611 0 0 1-.171.452.61.61 0 0 1-.452.171.63.63 0 0 1-.432-.171.578.578 0 0 1-.191-.452c0-1.78-.659-3.272-1.976-4.476-1.316-1.204-2.877-1.806-4.68-1.806s-3.356.602-4.659 1.806c-1.302 1.204-1.954 2.696-1.954 4.475 0 1.921.334 3.547 1 4.879.667 1.331 1.634 2.675 2.903 4.03.14.142.204.296.19.462a.65.65 0 0 1-.19.419.617.617 0 0 1-.433.19.593.593 0 0 1-.446-.19c-1.358-1.439-2.41-2.917-3.154-4.437-.744-1.52-1.116-3.303-1.116-5.353 0-2.119.768-3.903 2.305-5.353 1.537-1.45 3.389-2.175 5.555-2.175Zm-.052 6.906a.59.59 0 0 1 .453.187.62.62 0 0 1 .173.436c0 1.789.641 3.256 1.923 4.401s2.782 1.718 4.5 1.718c.186 0 .409-.012.667-.035a10.1 10.1 0 0 0 .796-.106.553.553 0 0 1 .452.075.68.68 0 0 1 .259.41.439.439 0 0 1-.093.435.834.834 0 0 1-.417.256 5.71 5.71 0 0 1-.974.174 9.26 9.26 0 0 1-.69.038c-2.063 0-3.857-.698-5.382-2.095-1.525-1.396-2.287-3.153-2.287-5.271 0-.166.057-.312.17-.436a.58.58 0 0 1 .45-.187Z"/>
</svg>
